X:7
T:The Bath
M:C|
L:1/8
K:GMix
d2 | g3 d g3 d | gfef g2 B2 | c2 A2 d3 d | A4 A4 | G2 GG G2 G2 | GABc d3 B | cd e2 d3 c| B6 ||
%
%
